src/main/resources/static/assets/css/plugins/footable/fonts/footable.svg

<svg><defs><font id="footable" horiz-adv-x="512"><font-face ascent="480" descent="-32" units-per-em="512"/><glyph d="M496 288H320v176c0 8.836-7.164 16-16 16h-96c-8.836 0-16-7.164-16-16V288H16c-8.836 0-16-7.164-16-16v-96c0-8.836 7.164-16 16-16h176V-16c0-8.836 7.164-16 16-16h96c8.836 0 16 7.164 16 16v176h176c8.836 0 16 7.164 16 16v96c0 8.836-7.164 16-16 16z" unicode=""/><glyph d="M0 272v-96c0-8.836 7.164-16 16-16h480c8.836 0 16 7.164 16 16v96c0 8.836-7.164 16-16 16H16c-8.836 0-16-7.164-16-16z" unicode=""/><glyph d="M256 480C114.615 480 0 365.385 0 224S114.615-32 256-32 512 82.615 512 224 397.385 480 256 480zm32-288V64h-64v128H96v64h128v128h64V256h128v-64H288z" unicode=""/><glyph d="M256 480C114.615 480 0 365.385 0 224S114.615-32 256-32 512 82.615 512 224 397.385 480 256 480zm160-288H96v64h320v-64z" unicode=""/><glyph d="M256 480C114.615 480 0 365.385 0 224S114.615-32 256-32 512 82.615 512 224 397.385 480 256 480zm0-448C149.961 32 64 117.961 64 224s85.961 192 192 192 192-85.961 192-192S362.039 32 256 32zm128 160h-96V96h-64v96h-96v64h96v96h64v-96h96z" unicode=""/><glyph d="M256 480C114.615 480 0 365.385 0 224S114.615-32 256-32 512 82.615 512 224 397.385 480 256 480zm0-448C149.961 32 64 117.961 64 224s85.961 192 192 192 192-85.961 192-192S362.039 32 256 32zM128 256h256v-64H128z" unicode=""/><glyph d="M256 214.857v-18.286q0-4-2.571-6.571t-6.571-2.571h-64v-64q0-4-2.571-6.571t-6.571-2.571H155.43q-4 0-6.571 2.571t-2.571 6.571v64h-64q-4 0-6.571 2.571t-2.571 6.571v18.286q0 4 2.571 6.571t6.571 2.571h64v64q0 4 2.571 6.571t6.571 2.571h18.286q4 0 6.571-2.571t2.571-6.571v-64h64q4 0 6.571-2.571t2.571-6.571zm36.571-109.714v201.143q0 11.429-8 19.429t-19.429 8H63.999q-11.429 0-19.429-8t-8-19.429V105.143q0-11.429 8-19.429t19.429-8h201.143q11.429 0 19.429 8t8 19.429zm36.572 201.143V105.143q0-26.286-18.714-45.143t-45.286-18.857H64q-26.571 0-45.286 18.857T0 105.143v201.143q0 26.571 18.714 45.286T64 370.286h201.143q26.571 0 45.286-18.714t18.714-45.286z" horiz-adv-x="329.143" unicode=""/><glyph d="M265.143 370.286q26.571 0 45.286-18.714t18.714-45.286V105.143q0-26.286-18.714-45.143t-45.286-18.857H64q-26.571 0-45.286 18.857T0 105.143v201.143q0 26.571 18.714 45.286T64 370.286h201.143zm27.428-265.143v201.143q0 11.429-8 19.429t-19.429 8H63.999q-11.429 0-19.429-8t-8-19.429V105.143q0-11.429 8-19.429t19.429-8h201.143q11.429 0 19.429 8t8 19.429zM246.857 224q4 0 6.571-2.571t2.571-6.571v-18.286q0-4-2.571-6.571t-6.571-2.571H82.286q-4 0-6.571 2.571t-2.571 6.571v18.286q0 4 2.571 6.571T82.286 224h164.571z" horiz-adv-x="329.143" unicode=""/><glyph d="M365.714 205.714v36.571q0 7.429-5.429 12.857t-12.857 5.429h-91.429V352q0 7.429-5.429 12.857t-12.857 5.429h-36.571q-7.429 0-12.857-5.429T182.856 352v-91.429H91.427q-7.429 0-12.857-5.429t-5.429-12.857v-36.571q0-7.429 5.429-12.857t12.857-5.429h91.429V95.999q0-7.429 5.429-12.857t12.857-5.429h36.571q7.429 0 12.857 5.429t5.429 12.857v91.429h91.429q7.429 0 12.857 5.429t5.429 12.857zm73.143 155.429V86.857q0-34-24.143-58.143T356.571 4.571H82.285q-34 0-58.143 24.143T-.001 86.857v274.286q0 34 24.143 58.143t58.143 24.143h274.286q34 0 58.143-24.143t24.143-58.143z" horiz-adv-x="438.857" unicode=""/><glyph d="M365.714 205.714v36.571q0 7.429-5.429 12.857t-12.857 5.429h-256q-7.429 0-12.857-5.429t-5.429-12.857v-36.571q0-7.429 5.429-12.857t12.857-5.429h256q7.429 0 12.857 5.429t5.429 12.857zm73.143 155.429V86.857q0-34-24.143-58.143T356.571 4.571H82.285q-34 0-58.143 24.143T-.001 86.857v274.286q0 34 24.143 58.143t58.143 24.143h274.286q34 0 58.143-24.143t24.143-58.143z" horiz-adv-x="438.857" unicode=""/><glyph d="M512 224C512 82.615 397.385-32 256-32S0 82.615 0 224s114.615 256 256 256 256-114.615 256-256zM233.372 374.628l-128-128.001C99.124 240.379 96 232.189 96 224s3.124-16.379 9.372-22.627c12.497-12.497 32.759-12.497 45.256 0L224 274.745V96c0-17.673 14.327-32 32-32 17.673 0 32 14.327 32 32v178.745l73.373-73.373c12.497-12.497 32.758-12.497 45.255 0s12.497 32.758 0 45.254l-128 128.001c-12.497 12.497-32.759 12.497-45.256.001z" unicode=""/><glyph d="M512 224c0 141.385-114.615 256-256 256S0 365.385 0 224 114.615-32 256-32 512 82.615 512 224zM233.372 73.372l-128 128.001C99.124 207.621 96 215.811 96 224s3.124 16.379 9.372 22.627c12.497 12.497 32.759 12.497 45.256 0L224 173.255V352c0 17.673 14.327 32 32 32 17.673 0 32-14.327 32-32V173.255l73.373 73.373c12.497 12.497 32.758 12.497 45.255 0s12.497-32.758 0-45.254l-128-128.001c-12.497-12.497-32.759-12.497-45.256-.001z" unicode=""/><glyph d="M256 480c141.385 0 256-114.615 256-256S397.385-32 256-32 0 82.615 0 224s114.615 256 256 256zM105.372 201.372l128.001-128C239.621 67.124 247.811 64 256 64s16.379 3.124 22.627 9.372c12.497 12.497 12.497 32.759 0 45.256L205.255 192H384c17.673 0 32 14.327 32 32 0 17.673-14.327 32-32 32H205.255l73.373 73.373c12.497 12.497 12.497 32.758 0 45.255s-32.758 12.497-45.254 0l-128.001-128c-12.497-12.497-12.497-32.759-.001-45.256z" unicode=""/><glyph d="M256 480C114.615 480 0 365.385 0 224S114.615-32 256-32 512 82.615 512 224 397.385 480 256 480zm150.628-278.628l-128.001-128C272.379 67.124 264.189 64 256 64s-16.379 3.124-22.627 9.372c-12.497 12.497-12.497 32.759 0 45.256L306.745 192H128c-17.673 0-32 14.327-32 32 0 17.673 14.327 32 32 32h178.745l-73.373 73.373c-12.497 12.497-12.497 32.758 0 45.255s32.758 12.497 45.254 0l128.001-128c12.497-12.497 12.497-32.759.001-45.256z" unicode=""/><glyph d="M0 160l96-96 160 160L416 64l96 96-255.999 256z" unicode=""/><glyph d="M512 288l-96 96-160-160L96 384 0 288 256 32.001z" unicode=""/><glyph d="M320-32l96 96-160 160 160 160-96 96L64 224z" unicode=""/><glyph d="M192 480l-96-96 160-160L96 64l96-96 256 256z" unicode=""/><glyph d="M292.571 132.571q0-7.429-5.429-12.857t-12.857-5.429h-256q-7.429 0-12.857 5.429t-5.429 12.857 5.429 12.857l128 128q5.429 5.429 12.857 5.429t12.857-5.429l128-128q5.429-5.429 5.429-12.857z" horiz-adv-x="292.571" unicode=""/><glyph d="M292.571 278.857q0-7.429-5.429-12.857l-128-128q-5.429-5.429-12.857-5.429T133.428 138l-128 128q-5.429 5.429-5.429 12.857t5.429 12.857 12.857 5.429h256q7.429 0 12.857-5.429t5.429-12.857z" horiz-adv-x="292.571" unicode=""/><glyph d="M182.857 352V96q0-7.429-5.429-12.857t-12.857-5.429-12.857 5.429l-128 128q-5.429 5.429-5.429 12.857t5.429 12.857l128 128q5.429 5.429 12.857 5.429t12.857-5.429T182.857 352z" horiz-adv-x="182.857" unicode=""/><glyph d="M164.571 224q0-7.429-5.429-12.857l-128-128q-5.429-5.429-12.857-5.429T5.428 83.143-.001 96v256q0 7.429 5.429 12.857t12.857 5.429 12.857-5.429l128-128q5.429-5.429 5.429-12.857z" horiz-adv-x="182.857" unicode=""/><glyph d="M256 480L32-32l224 96 224-96z" unicode=""/><glyph d="M256-32l224 512-224-96-224 96z" unicode=""/><glyph d="M0 224L512 0l-96 224 96 224z" unicode=""/><glyph d="M512 224L0 448l96-224L0 0z" unicode=""/><glyph d="M512 224C512 82.615 397.385-32 256-32S0 82.615 0 224s114.615 256 256 256 256-114.615 256-256zm-464 0c0-114.875 93.125-208 208-208s208 93.125 208 208-93.125 208-208 208S48 338.875 48 224zm230.627 150.628l128-128.001c12.497-12.496 12.497-32.757 0-45.254s-32.758-12.497-45.255 0L288 274.745V96c0-17.673-14.327-32-32-32-17.673 0-32 14.327-32 32v178.745l-73.372-73.373c-12.497-12.497-32.759-12.497-45.256 0C99.124 207.621 96 215.811 96 224s3.124 16.379 9.372 22.627l128 128.001c12.497 12.496 32.759 12.496 45.255 0z" unicode=""/><glyph d="M512 224c0 141.385-114.615 256-256 256S0 365.385 0 224 114.615-32 256-32 512 82.615 512 224zm-464 0c0 114.875 93.125 208 208 208s208-93.125 208-208S370.875 16 256 16 48 109.125 48 224zM278.627 73.372l128 128.001c12.497 12.496 12.497 32.757 0 45.254s-32.758 12.497-45.255 0L288 173.255V352c0 17.673-14.327 32-32 32-17.673 0-32-14.327-32-32V173.255l-73.372 73.373c-12.497 12.497-32.759 12.497-45.256 0C99.124 240.379 96 232.189 96 224s3.124-16.379 9.372-22.627l128-128.001c12.497-12.496 32.759-12.496 45.255 0z" unicode=""/><glyph d="M256 480c141.385 0 256-114.615 256-256S397.385-32 256-32 0 82.615 0 224s114.615 256 256 256zm0-464c114.875 0 208 93.125 208 208s-93.125 208-208 208S48 338.875 48 224 141.125 16 256 16zM105.372 246.627l128.001 128c12.496 12.497 32.757 12.497 45.254 0s12.497-32.758 0-45.255L205.255 256H384c17.673 0 32-14.327 32-32 0-17.673-14.327-32-32-32H205.255l73.373-73.372c12.497-12.497 12.497-32.759 0-45.256C272.379 67.124 264.189 64 256 64s-16.379 3.124-22.627 9.372l-128.001 128c-12.496 12.497-12.496 32.759 0 45.255z" unicode=""/><glyph d="M256 480C114.615 480 0 365.385 0 224S114.615-32 256-32 512 82.615 512 224 397.385 480 256 480zm0-464C141.125 16 48 109.125 48 224s93.125 208 208 208 208-93.125 208-208S370.875 16 256 16zm150.628 230.627l-128.001 128c-12.496 12.497-32.757 12.497-45.254 0s-12.497-32.758 0-45.255L306.745 256H128c-17.673 0-32-14.327-32-32 0-17.673 14.327-32 32-32h178.745l-73.373-73.372c-12.497-12.497-12.497-32.759 0-45.256C239.621 67.124 247.811 64 256 64s16.379 3.124 22.627 9.372l128.001 128c12.496 12.497 12.496 32.759 0 45.255z" unicode=""/><glyph d="M307.143 141.714q0-3.714-2.857-6.571L290 120.857Q287.143 118 283.429 118t-6.571 2.857L164.572 233.143 52.286 120.857Q49.429 118 45.715 118t-6.571 2.857l-14.286 14.286q-2.857 2.857-2.857 6.571t2.857 6.571l133.143 133.143q2.857 2.857 6.571 2.857t6.571-2.857l133.143-133.143q2.857-2.857 2.857-6.571z" horiz-adv-x="329.143" unicode=""/><glyph d="M307.143 269.714q0-3.714-2.857-6.571L171.143 130q-2.857-2.857-6.571-2.857T158.001 130L24.858 263.143q-2.857 2.857-2.857 6.571t2.857 6.571l14.286 14.286q2.857 2.857 6.571 2.857t6.571-2.857l112.286-112.286 112.286 112.286q2.857 2.857 6.571 2.857t6.571-2.857l14.286-14.286q2.857-2.857 2.857-6.571z" horiz-adv-x="329.143" unicode=""/><glyph d="M179.143 324.571q0-3.714-2.857-6.571L64 205.714 176.286 93.428q2.857-2.857 2.857-6.571t-2.857-6.571L162 66q-2.857-2.857-6.571-2.857T148.858 66L15.715 199.143q-2.857 2.857-2.857 6.571t2.857 6.571l133.143 133.143q2.857 2.857 6.571 2.857t6.571-2.857l14.286-14.286q2.857-2.857 2.857-6.571z" horiz-adv-x="182.857" unicode=""/><glyph d="M170 205.714q0-3.714-2.857-6.571L34 66q-2.857-2.857-6.571-2.857T20.858 66L6.572 80.286q-2.857 2.857-2.857 6.571t2.857 6.571l112.286 112.286L6.572 318q-2.857 2.857-2.857 6.571t2.857 6.571l14.286 14.286q2.857 2.857 6.571 2.857T34 345.428l133.143-133.143q2.857-2.857 2.857-6.571z" horiz-adv-x="182.857" unicode=""/><glyph d="M292.571 169.143q0-7.429-5.429-12.857l-128-128q-5.429-5.429-12.857-5.429t-12.857 5.429l-128 128q-5.429 5.429-5.429 12.857T5.428 182t12.857 5.429h256q7.429 0 12.857-5.429t5.429-12.857zm0 109.714q0-7.429-5.429-12.857t-12.857-5.429h-256q-7.429 0-12.857 5.429t-5.429 12.857 5.429 12.857l128 128q5.429 5.429 12.857 5.429t12.857-5.429l128-128q5.429-5.429 5.429-12.857z" horiz-adv-x="292.571" unicode=""/><glyph horiz-adv-x="256"/></font></defs></svg>

<?xml version="1.0" standalone="no"?>
<!DOCTYPE svg PUBLIC "-//W3C//DTD SVG 1.1//EN" "http://www.w3.org/Graphics/SVG/1.1/DTD/svg11.dtd" >
<svg xmlns="http://www.w3.org/2000/svg">
<metadata>
This is a custom SVG font generated by IcoMoon.
<iconset grid="16"></iconset>
</metadata>
<defs>
<font id="footable" horiz-adv-x="512" >
<font-face units-per-em="512" ascent="480" descent="-32" />
<missing-glyph horiz-adv-x="512" />
<glyph class="hidden" unicode="&#xf000;" d="M0,480L 512 -32L0 -32 z" horiz-adv-x="0" />
<glyph unicode="&#xe000;" d="M 496,288L 320,288 L 320,464 c0,8.836-7.164,16-16,16l-96,0 c-8.836,0-16-7.164-16-16l0-176 L 16,288 c-8.836,0-16-7.164-16-16l0-96
	c0-8.836, 7.164-16, 16-16l 176,0 l0-176 c0-8.836, 7.164-16, 16-16l 96,0 c 8.836,0, 16,7.164, 16,16L 320,160 l 176,0 c 8.836,0, 16,7.164, 16,16l0,96
	C 512,280.836, 504.836,288, 496,288z"  />
<glyph unicode="&#xe001;" d="M0,272l0-96 c0-8.836, 7.164-16, 16-16l 480,0 c 8.836,0, 16,7.164, 16,16l0,96 c0,8.836-7.164,16-16,16L 16,288 C 7.164,288,0,280.836,0,272z"  />
<glyph unicode="&#xe002;" d="M 256,480C 114.615,480,0,365.385,0,224s 114.615-256, 256-256s 256,114.615, 256,256S 397.385,480, 256,480z M 288,192l0-128 l-64,0 L 224,192 L 96,192 l0,64
	l 128,0 L 224,384 l 64,0 l0-128 l 128,0 l0-64 L 288,192 z"  />
<glyph unicode="&#xe003;" d="M 256,480C 114.615,480,0,365.385,0,224s 114.615-256, 256-256s 256,114.615, 256,256S 397.385,480, 256,480z M 416,192L 96,192 l0,64 l 320,0 L 416,192 z"  />
<glyph unicode="&#xe004;" d="M 256,480C 114.615,480,0,365.385,0,224s 114.615-256, 256-256s 256,114.615, 256,256S 397.385,480, 256,480z M 256,32
	c-106.039,0-192,85.961-192,192c0,106.039, 85.961,192, 192,192c 106.039,0, 192-85.961, 192-192C 448,117.961, 362.039,32, 256,32zM 384,192 L 288,192 L 288,96 L 224,96 L 224,192 L 128,192 L 128,256 L 224,256 L 224,352 L 288,352 L 288,256 L 384,256 Z"  />
<glyph unicode="&#xe005;" d="M 256,480C 114.615,480,0,365.385,0,224s 114.615-256, 256-256s 256,114.615, 256,256S 397.385,480, 256,480z M 256,32
	c-106.039,0-192,85.961-192,192c0,106.039, 85.961,192, 192,192c 106.039,0, 192-85.961, 192-192C 448,117.961, 362.039,32, 256,32zM 128,256L 384,256L 384,192L 128,192z"  />
<glyph unicode="&#xe006;" d="M 256,214.857l0-18.286 q0-4 -2.571-6.571t-6.571-2.571l-64,0 l0-64 q0-4 -2.571-6.571t-6.571-2.571l-18.286,0 q-4,0 -6.571,2.571t-2.571,6.571l0,64 l-64,0 q-4,0 -6.571,2.571t-2.571,6.571l0,18.286 q0,4 2.571,6.571t 6.571,2.571l 64,0 l0,64 q0,4 2.571,6.571t 6.571,2.571l 18.286,0 q 4,0 6.571-2.571t 2.571-6.571l0-64 l 64,0 q 4,0 6.571-2.571t 2.571-6.571zM 292.571,105.143l0,201.143 q0,11.429 -8,19.429t-19.429,8l-201.143,0 q-11.429,0 -19.429-8 t-8-19.429l0-201.143 q0-11.429 8-19.429t 19.429-8l 201.143,0 q 11.429,0 19.429,8t 8,19.429zM 329.143,306.286l0-201.143 q0-26.286 -18.714-45.143t-45.286-18.857l-201.143,0 q-26.571,0 -45.286,18.857t-18.714,45.143l0,201.143 q0,26.571 18.714,45.286t 45.286,18.714l 201.143,0 q 26.571,0 45.286-18.714t 18.714-45.286z" horiz-adv-x="329.143"  />
<glyph unicode="&#xe007;" d="M 265.143,370.286q 26.571,0 45.286-18.714t 18.714-45.286l0-201.143 q0-26.286 -18.714-45.143t-45.286-18.857l-201.143,0 q-26.571,0 -45.286,18.857t-18.714,45.143l0,201.143 q0,26.571 18.714,45.286t 45.286,18.714l 201.143,0 zM 292.571,105.143l0,201.143 q0,11.429 -8,19.429t-19.429,8l-201.143,0 q-11.429,0 -19.429-8t-8-19.429l0-201.143 q0-11.429 8-19.429t 19.429-8l 201.143,0 q 11.429,0 19.429,8t 8,19.429z M 246.857,224q 4,0 6.571-2.571t 2.571-6.571l0-18.286 q0-4 -2.571-6.571t-6.571-2.571l-164.571,0 q-4,0 -6.571,2.571t-2.571,6.571l0,18.286 q0,4 2.571,6.571t 6.571,2.571l 164.571,0 z" horiz-adv-x="329.143"  />
<glyph unicode="&#xe008;" d="M 365.714,205.714l0,36.571 q0,7.429 -5.429,12.857t-12.857,5.429l-91.429,0 l0,91.429 q0,7.429 -5.429,12.857t-12.857,5.429l-36.571,0 q-7.429,0 -12.857-5.429t-5.429-12.857l0-91.429 l-91.429,0 q-7.429,0 -12.857-5.429t-5.429-12.857l0-36.571 q0-7.429 5.429-12.857t 12.857-5.429l 91.429,0 l0-91.429 q0-7.429 5.429-12.857t 12.857-5.429l 36.571,0 q 7.429,0 12.857,5.429t 5.429,12.857l0,91.429 l 91.429,0 q 7.429,0 12.857,5.429t 5.429,12.857zM 438.857,361.143l0-274.286  q0-34 -24.143-58.143t-58.143-24.143l-274.286,0 q-34,0 -58.143,24.143t-24.143,58.143l0,274.286 q0,34 24.143,58.143t 58.143,24.143l 274.286,0 q 34,0 58.143-24.143t 24.143-58.143z" horiz-adv-x="438.857"  />
<glyph unicode="&#xe009;" d="M 365.714,205.714l0,36.571 q0,7.429 -5.429,12.857t-12.857,5.429l-256,0 q-7.429,0 -12.857-5.429t-5.429-12.857l0-36.571 q0-7.429 5.429-12.857t 12.857-5.429l 256,0 q 7.429,0 12.857,5.429t 5.429,12.857zM 438.857,361.143l0-274.286 q0-34 -24.143-58.143t-58.143-24.143l-274.286,0 q-34,0 -58.143,24.143t-24.143,58.143l0,274.286 q0,34 24.143,58.143t 58.143,24.143l 274.286,0 q 34,0 58.143-24.143 t 24.143-58.143z" horiz-adv-x="438.857"  />
<glyph unicode="&#xe00a;" d="M 512,224C 512,82.615, 397.385-32, 256-32s -256,114.615, -256,256s 114.615,256, 256,256S 512,365.385, 512,224z M 233.372,374.628
		l -128-128.001C 99.124,240.379, 96,232.189, 96,224s 3.124-16.379 9.372-22.627c 12.497-12.497 32.759-12.497, 45.256,0L 224,274.745
		L 224,96 c 0-17.673 14.327-32 32-32c 17.673,0, 32,14.327, 32,32l0,178.745 l 73.373-73.373c 12.497-12.497 32.758-12.497, 45.255,0
		c 12.497,12.497, 12.497,32.758, 0,45.254l -128,128.001C 266.131,387.124, 245.869,387.124, 233.372,374.628z"  />
<glyph unicode="&#xe00b;" d="M 512,224C 512,365.385, 397.385,480, 256,480s -256-114.615, -256-256s 114.615-256, 256-256S 512,82.615, 512,224z M 233.372,73.372
		l -128,128.001C 99.124,207.621, 96,215.811, 96,224s 3.124,16.379 9.372,22.627c 12.497,12.497 32.759,12.497, 45.256,0L 224,173.255
		L 224,352 c 0,17.673 14.327,32 32,32c 17.673,0, 32-14.327, 32-32l0-178.745 l 73.373,73.373c 12.497,12.497 32.758,12.497, 45.255,0
		c 12.497-12.497, 12.497-32.758, 0-45.254l -128-128.001C 266.131,60.876, 245.869,60.876, 233.372,73.372z"  />
<glyph unicode="&#xe00c;" d="M 256,480C 397.385,480, 512,365.385, 512,224s -114.615-256, -256-256s -256,114.615, -256,256S 114.615,480, 256,480z M 105.372,201.372
		l 128.001-128C 239.621,67.124, 247.811,64, 256,64s 16.379,3.124 22.627,9.372c 12.497,12.497 12.497,32.759,0,45.256L 205.255,192
		L 384,192 c 17.673,0 32,14.327 32,32c0,17.673, -14.327,32, -32,32l-178.745,0 l 73.373,73.373c 12.497,12.497 12.497,32.758,0,45.255
		c -12.497,12.497, -32.758,12.497, -45.254,0l -128.001-128C 92.876,234.131, 92.876,213.869, 105.372,201.372z"  />
<glyph unicode="&#xe00d;" d="M 256,480C 114.615,480,0,365.385,0,224s 114.615-256, 256-256s 256,114.615, 256,256S 397.385,480, 256,480z M 406.628,201.372
		l-128.001-128C 272.379,67.124, 264.189,64, 256,64s-16.379,3.124-22.627,9.372c-12.497,12.497-12.497,32.759,0,45.256L 306.745,192
		L 128,192 c-17.673,0-32,14.327-32,32c0,17.673, 14.327,32, 32,32l 178.745,0 l-73.373,73.373c-12.497,12.497-12.497,32.758,0,45.255
		c 12.497,12.497, 32.758,12.497, 45.254,0l 128.001-128C 419.124,234.131, 419.124,213.869, 406.628,201.372z"  />
<glyph unicode="&#xe00e;" d="M0,160L 96,64L 256,224L 416,64L 512,160L 256.001,416 z"  />
<glyph unicode="&#xe00f;" d="M 512,288L 416,384L 256,224L 96,384L0,288L 256,32.001 z"  />
<glyph unicode="&#xe010;" d="M 320-32L 416,64L 256,224L 416,384L 320,480L 64,224 z"  />
<glyph unicode="&#xe011;" d="M 192,480L 96,384L 256,224L 96,64L 192-32L 448,224 z"  />
<glyph unicode="&#xe012;" d="M 292.571,132.571q0-7.429 -5.429-12.857t-12.857-5.429l-256,0 q-7.429,0 -12.857,5.429t-5.429,12.857t 5.429,12.857l 128,128q 5.429,5.429 12.857,5.429t 12.857-5.429l 128-128q 5.429-5.429 5.429-12.857z" horiz-adv-x="292.571"  />
<glyph unicode="&#xe013;" d="M 292.571,278.857q0-7.429 -5.429-12.857l-128-128q-5.429-5.429 -12.857-5.429t-12.857,5.429l-128,128q-5.429,5.429 -5.429,12.857t 5.429,12.857t 12.857,5.429l 256,0 q 7.429,0 12.857-5.429t 5.429-12.857z" horiz-adv-x="292.571"  />
<glyph unicode="&#xe014;" d="M 182.857,352l0-256 q0-7.429 -5.429-12.857t-12.857-5.429t-12.857,5.429l-128,128q-5.429,5.429 -5.429,12.857t 5.429,12.857l 128,128q 5.429,5.429 12.857,5.429t 12.857-5.429t 5.429-12.857z" horiz-adv-x="182.857"  />
<glyph unicode="&#xe015;" d="M 164.571,224q0-7.429 -5.429-12.857l-128-128q-5.429-5.429 -12.857-5.429t-12.857,5.429t-5.429,12.857l0,256 q0,7.429 5.429,12.857t 12.857,5.429t 12.857-5.429l 128-128q 5.429-5.429 5.429-12.857z" horiz-adv-x="182.857"  />
<glyph unicode="&#xe016;" d="M 256,480L 32-32L 256,64L 480-32 z"  />
<glyph unicode="&#xe017;" d="M 256-32L 480,480L 256,384L 32,480 z"  />
<glyph unicode="&#xe018;" d="M0,224L 512,0L 416,224L 512,448 z"  />
<glyph unicode="&#xe019;" d="M 512,224L0,448L 96,224L0,0 z"  />
<glyph unicode="&#xe01a;" d="M 512,224C 512,82.615, 397.385-32, 256-32s -256,114.615, -256,256s 114.615,256, 256,256S 512,365.385, 512,224z M 48,224
		c 0-114.875 93.125-208 208-208S 464,109.125, 464,224s -93.125,208, -208,208S 48,338.875, 48,224zM 278.627,374.628l 128-128.001c 12.497-12.496 12.497-32.757 0-45.254c -12.497-12.497 -32.758-12.497,-45.255,0L 288,274.745
	L 288,96 c 0-17.673 -14.327-32 -32-32c-17.673,0, -32,14.327, -32,32l0,178.745 l -73.372-73.373c -12.497-12.497 -32.759-12.497,-45.256,0
	C 99.124,207.621, 96,215.811, 96,224s 3.124,16.379, 9.372,22.627l 128,128.001C 245.869,387.124, 266.131,387.124, 278.627,374.628z"  />
<glyph unicode="&#xe01b;" d="M 512,224C 512,365.385, 397.385,480, 256,480s -256-114.615, -256-256s 114.615-256, 256-256S 512,82.615, 512,224z M 48,224
		c 0,114.875 93.125,208 208,208S 464,338.875, 464,224s -93.125-208, -208-208S 48,109.125, 48,224zM 278.627,73.372l 128,128.001c 12.497,12.496 12.497,32.757 0,45.254c -12.497,12.497 -32.758,12.497,-45.255,0L 288,173.255
	L 288,352 c 0,17.673 -14.327,32 -32,32c-17.673,0, -32-14.327, -32-32l0-178.745 l -73.372,73.373c -12.497,12.497 -32.759,12.497,-45.256,0
	C 99.124,240.379, 96,232.189, 96,224s 3.124-16.379, 9.372-22.627l 128-128.001C 245.869,60.876, 266.131,60.876, 278.627,73.372z"  />
<glyph unicode="&#xe01c;" d="M 256,480C 397.385,480, 512,365.385, 512,224s -114.615-256, -256-256s -256,114.615, -256,256S 114.615,480, 256,480z M 256,16
		c 114.875,0 208,93.125 208,208S 370.875,432, 256,432s -208-93.125, -208-208S 141.125,16, 256,16zM 105.372,246.627l 128.001,128c 12.496,12.497 32.757,12.497 45.254,0c 12.497-12.497 12.497-32.758,0-45.255L 205.255,256
	L 384,256 c 17.673,0 32-14.327 32-32c0-17.673, -14.327-32, -32-32l-178.745,0 l 73.373-73.372c 12.497-12.497 12.497-32.759,0-45.256
	C 272.379,67.124, 264.189,64, 256,64s -16.379,3.124, -22.627,9.372l -128.001,128C 92.876,213.869, 92.876,234.131, 105.372,246.627z"  />
<glyph unicode="&#xe01d;" d="M 256,480C 114.615,480,0,365.385,0,224s 114.615-256, 256-256s 256,114.615, 256,256S 397.385,480, 256,480z M 256,16
		c-114.875,0-208,93.125-208,208S 141.125,432, 256,432s 208-93.125, 208-208S 370.875,16, 256,16zM 406.628,246.627l-128.001,128c-12.496,12.497-32.757,12.497-45.254,0c-12.497-12.497-12.497-32.758,0-45.255L 306.745,256
	L 128,256 c-17.673,0-32-14.327-32-32c0-17.673, 14.327-32, 32-32l 178.745,0 l-73.373-73.372c-12.497-12.497-12.497-32.759,0-45.256
	C 239.621,67.124, 247.811,64, 256,64s 16.379,3.124, 22.627,9.372l 128.001,128C 419.124,213.869, 419.124,234.131, 406.628,246.627z"  />
<glyph unicode="&#xe01e;" d="M 307.143,141.714q0-3.714 -2.857-6.571l-14.286-14.286q-2.857-2.857 -6.571-2.857t-6.571,2.857l-112.286,112.286l-112.286-112.286q-2.857-2.857 -6.571-2.857t-6.571,2.857l-14.286,14.286q-2.857,2.857 -2.857,6.571t 2.857,6.571l 133.143,133.143q 2.857,2.857 6.571,2.857t 6.571-2.857l 133.143-133.143q 2.857-2.857 2.857-6.571z" horiz-adv-x="329.143"  />
<glyph unicode="&#xe01f;" d="M 307.143,269.714q0-3.714 -2.857-6.571l-133.143-133.143q-2.857-2.857 -6.571-2.857t-6.571,2.857l-133.143,133.143q-2.857,2.857 -2.857,6.571t 2.857,6.571l 14.286,14.286q 2.857,2.857 6.571,2.857t 6.571-2.857l 112.286-112.286l 112.286,112.286q 2.857,2.857 6.571,2.857t 6.571-2.857l 14.286-14.286q 2.857-2.857 2.857-6.571z" horiz-adv-x="329.143"  />
<glyph unicode="&#xe020;" d="M 179.143,324.571q0-3.714 -2.857-6.571l-112.286-112.286l 112.286-112.286q 2.857-2.857 2.857-6.571t-2.857-6.571l-14.286-14.286q-2.857-2.857 -6.571-2.857t-6.571,2.857l-133.143,133.143q-2.857,2.857 -2.857,6.571t 2.857,6.571l 133.143,133.143q 2.857,2.857 6.571,2.857t 6.571-2.857l 14.286-14.286q 2.857-2.857 2.857-6.571z" horiz-adv-x="182.857"  />
<glyph unicode="&#xe021;" d="M 170,205.714q0-3.714 -2.857-6.571l-133.143-133.143q-2.857-2.857 -6.571-2.857t-6.571,2.857l-14.286,14.286q-2.857,2.857 -2.857,6.571t 2.857,6.571l 112.286,112.286l-112.286,112.286q-2.857,2.857 -2.857,6.571t 2.857,6.571l 14.286,14.286q 2.857,2.857 6.571,2.857t 6.571-2.857l 133.143-133.143q 2.857-2.857 2.857-6.571z" horiz-adv-x="182.857"  />
<glyph unicode="&#xe022;" d="M 292.571,169.143q0-7.429 -5.429-12.857l-128-128q-5.429-5.429 -12.857-5.429t-12.857,5.429l-128,128q-5.429,5.429 -5.429,12.857t 5.429,12.857t 12.857,5.429l 256,0 q 7.429,0 12.857-5.429t 5.429-12.857zM 292.571,278.857q0-7.429 -5.429-12.857t-12.857-5.429l-256,0 q-7.429,0 -12.857,5.429t-5.429,12.857t 5.429,12.857l 128,128q 5.429,5.429 12.857,5.429t 12.857-5.429l 128-128q 5.429-5.429 5.429-12.857z" horiz-adv-x="292.571"  />
<glyph unicode="&#x20;" horiz-adv-x="256" />
</font></defs></svg>
